www/assets/icons/phonelink_erase.svg

<svg xmlns="http://www.w3.org/2000/svg" width="24" height="24" viewBox="0 0 24 24" fill='currentColor'><path d="m13 8.2-1-1-4 4-4-4-1 1 4 4-4 4 1 1 4-4 4 4 1-1-4-4zM19 1H9c-1.1 0-2 .9-2 2v3h2V4h10v16H9v-2H7v3c0 1.1.9 2 2 2h10c1.1 0 2-.9 2-2V3c0-1.1-.9-2-2-2"/></svg>

<svg width="24" height="24" viewBox="0 0 24 24" xmlns="http://www.w3.org/2000/svg" fill='currentColor'><path d="M13 8.2L12 7.2L8 11.2L4 7.2L3 8.2L7 12.2L3 16.2L4 17.2L8 13.2L12 17.2L13 16.2L9 12.2L13 8.2ZM19 1H9C7.9 1 7 1.9 7 3V6H9V4H19V20H9V18H7V21C7 22.1 7.9 23 9 23H19C20.1 23 21 22.1 21 21V3C21 1.9 20.1 1 19 1Z"/></svg>
